icons/1_Primary/Battlestate Games.svg

<svg width="1024" height="1024" viewBox="0 0 1024 1024" fill="none" xmlns="http://www.w3.org/2000/svg">
<g clip-path="url(#clip0_2_1572)">
<path d="M512 1024C794.77 1024 1024 794.77 1024 512C1024 229.23 794.77 0 512 0C229.23 0 0 229.23 0 512C0 794.77 229.23 1024 512 1024Z" fill="#56595B"/>
<path d="M832 495.041C820.41 495.151 808.82 495.001 797.25 495.111C797.37 470.741 797.26 446.371 797.3 422.001H831.62C831.39 396.281 832.09 370.531 831.24 344.831C794.01 344.741 756.78 344.811 719.55 344.791C712.92 359.721 706.49 374.751 699.8 389.651C698.41 392.861 696.42 396.041 696.59 399.671C696.58 418.751 696.66 437.831 696.55 456.911C691.87 456.931 687.19 456.921 682.52 456.931C682.5 426.901 682.51 396.851 682.51 366.821C563.66 366.841 444.79 366.771 325.94 366.861C324.14 371.441 322.05 375.891 320.08 380.401C315.11 368.461 309.43 356.841 304.68 344.821C301.87 344.541 299.07 344.441 296.25 344.491C261.61 344.691 226.98 344.161 192.35 344.851C192.4 348.651 192.09 352.451 192.03 356.241C191.99 409.471 192.05 462.711 191.99 515.941C192.65 534.711 192.14 553.511 192.33 572.301C241.83 572.261 291.34 572.301 340.84 572.291C340.84 576.321 340.86 580.341 340.78 584.371C321.75 584.291 302.72 584.291 283.7 584.371C288.13 595.681 292.24 607.101 296.71 618.401C323.35 618.381 350 618.331 376.65 618.421C377.17 613.611 376.91 608.771 376.96 603.941C376.91 582.321 377.17 560.711 376.63 539.111C357.76 539.121 338.89 539.121 320.02 539.111C320.01 535.091 319.97 531.091 320.06 527.091C346.28 527.161 372.51 526.981 398.74 527.171C398.62 553.181 398.63 579.181 398.73 605.201C410.79 605.141 422.83 605.201 434.89 605.151C434.67 579.121 434.82 553.091 434.82 527.061C447.1 527.131 459.37 527.071 471.64 527.061C478.65 505.971 485.98 484.991 492.99 463.911C509.89 464.041 526.79 463.981 543.69 463.951C550.95 484.911 557.93 505.961 565.21 526.911C577.49 527.311 589.78 527.041 602.06 527.061C602.08 553.071 602.15 579.071 602.02 605.091C613.97 605.291 625.92 605.151 637.87 605.141C637.92 579.151 637.94 553.141 637.86 527.131C645.2 527.081 652.54 527.121 659.86 527.081C660 557.551 659.82 588.001 659.95 618.471C686.67 618.271 713.41 618.381 740.14 618.421C744.43 607.071 748.71 595.711 753 584.371C733.96 584.261 714.9 584.331 695.86 584.331C695.68 580.341 695.73 576.351 695.81 572.371C741.18 572.171 786.56 572.361 831.93 572.281C831.97 546.531 831.84 520.781 832 495.051V495.041ZM317.93 492.831C310.92 493.101 303.9 493.051 296.89 493.011C293.83 501.241 290.64 509.421 287.54 517.641C285.98 522.041 283.62 526.411 283.89 531.221C283.93 537.821 283.85 544.421 283.96 551.021C260.43 551.331 236.9 551.031 213.36 551.181C213.61 489.421 213.31 427.651 213.51 365.901C239.21 365.841 264.95 365.131 290.62 366.021C295.48 377.041 300.36 388.061 305.21 399.091C306.92 402.981 306.44 407.301 306.49 411.421C306.37 420.441 306.74 429.451 306.2 438.461C306.04 441.301 306.68 444.131 307.98 446.671C310.81 452.541 313.4 458.521 316.08 464.461C317 466.631 317.99 468.871 317.95 471.291C317.96 478.481 317.95 485.651 317.91 492.831H317.93ZM378.5 492.721C378.41 488.811 378.44 484.901 378.35 481.001C373.29 481.001 368.22 480.981 363.16 480.981C363.16 484.901 363.16 488.821 363.15 492.731C350.26 492.771 337.38 492.661 324.5 492.791C324.39 480.171 323.82 467.541 324.28 454.911C324.77 444.321 323.95 433.681 324.68 423.121C328.94 412.421 334 402.061 338.39 391.411C339.19 389.981 339.88 387.551 341.95 387.761C361.78 387.451 381.61 387.841 401.43 387.571C406.47 398.501 411.23 409.571 416.11 420.591C418.01 424.691 417.37 429.331 417.47 433.701C417.49 453.371 417.38 473.041 417.53 492.711C404.52 492.761 391.52 492.731 378.51 492.721H378.5ZM516.69 422.801C507.66 422.951 498.64 422.861 489.63 422.851C489.67 432.381 489.7 441.921 489.67 451.441C489.68 454.051 488.79 456.541 487.98 458.981C483.93 470.181 480.4 481.561 476.37 492.771C467.87 492.731 459.37 492.681 450.87 492.791C451.02 469.461 450.99 446.131 450.88 422.801C441.91 422.911 432.93 422.941 423.96 422.791C423.61 411.231 423.41 399.641 423.84 388.061C454.75 387.441 485.7 387.521 516.63 387.861C516.91 399.501 517.28 411.151 516.7 422.801H516.69ZM589.1 422.931C589.22 446.201 589.18 469.481 589.11 492.751C579.52 492.601 569.93 493.481 560.33 492.631C557.07 482.251 552.86 472.131 550.26 461.561C549.99 448.661 550.17 435.741 550.19 422.841C541.15 422.891 532.12 422.851 523.09 422.841C523.15 411.201 523.2 399.571 523.07 387.931C551.57 387.511 580.07 387.651 608.58 387.651C611.13 387.661 613.68 387.831 616.24 388.011C616.13 399.601 616.28 411.191 616.29 422.771C607.23 422.971 598.16 422.721 589.11 422.911L589.1 422.931ZM622.73 492.721C622.48 457.841 622.8 422.961 622.57 388.071C635.49 387.411 648.42 387.621 661.35 387.751C661.78 392.491 661.66 397.271 661.67 402.041C661.67 427.471 661.68 452.901 661.67 478.341C678.2 478.351 694.74 478.331 711.28 478.351C711.28 483.151 711.66 487.971 711.19 492.761C681.71 492.681 652.22 493.421 622.75 492.711L622.73 492.721ZM810.83 550.741C791.95 551.631 773.01 550.901 754.11 551.141C739.93 551.091 725.73 551.231 711.55 551.071C711.62 547.071 711.61 543.051 711.49 539.051C706.24 539.131 700.98 539.121 695.73 539.091C695.71 535.091 695.67 531.071 695.77 527.071C714.83 527.071 733.89 527.141 752.95 527.031C748.9 515.631 744.3 504.441 740.21 493.051C732.75 493.011 725.3 492.981 717.84 493.071C717.58 463.891 717.84 434.711 717.72 405.531C717.33 400.961 719.79 396.951 721.5 392.911C725.47 383.951 729.5 375.031 733.25 365.991C758.97 365.841 784.69 365.981 810.41 365.931C810.62 377.551 810.34 389.181 810.56 400.801C794.5 400.921 778.42 400.861 762.36 400.841C760.55 401.071 758.4 400.321 756.87 401.441C756.66 415.151 756.53 428.861 756.76 442.571C763.1 442.531 769.45 442.551 775.8 442.571C776.14 453.211 776.38 463.861 775.89 474.491C769.55 474.531 763.22 474.611 756.89 474.481C756.68 489.431 756.19 504.371 756.7 519.321C774.73 519.651 792.78 519.331 810.83 519.471C810.64 529.881 810.71 540.321 810.81 550.751L810.83 550.741ZM267.49 442.571C262.38 442.551 257.29 442.551 252.18 442.571C252.25 428.631 252.18 414.691 252.22 400.751C257.28 400.901 262.34 400.701 267.39 401.071C267.58 414.911 267.38 428.741 267.5 442.571H267.49ZM378.52 422.891C378.38 431.601 378.36 440.311 378.5 449.031C373.46 449.011 368.43 448.991 363.39 449.021C363.48 440.311 363.45 431.601 363.4 422.901C368.44 422.831 373.47 422.861 378.52 422.901V422.891ZM470.21 548.691C479.22 522.321 488.08 495.891 497.05 469.511C511.23 469.501 525.4 469.621 539.59 469.471C548.75 495.711 557.39 522.141 566.45 548.421C554.96 548.581 543.46 548.431 531.97 548.491C527.4 534.651 522.87 520.791 518.4 506.921C513.82 520.921 509.24 534.911 504.65 548.891C493.18 548.601 481.7 548.971 470.21 548.691ZM278.87 474.521C278.89 488.301 279.23 502.061 278.93 515.851C270.03 516.301 261.11 516.401 252.22 515.941C252.21 502.131 252.22 488.331 252.2 474.511C261.09 474.531 269.99 474.531 278.88 474.521H278.87ZM496.36 575.291C489.06 597.051 482.07 618.901 474.77 640.651C468.62 630.751 461.77 621.291 455.3 611.601C453.84 609.221 451.54 606.951 451.61 603.981C452.67 599.541 454.57 595.351 455.87 590.991C460.21 579.191 463.62 567.051 468.23 555.361C477.51 562.151 487.06 568.521 496.35 575.281L496.36 575.291ZM584.15 607.521C576.79 618.431 569.43 629.311 562.04 640.201C554.77 619.131 547.66 598.001 540.98 576.741C540.12 575.171 541.75 574.231 542.82 573.461C551.48 567.591 559.9 561.381 568.52 555.461C573.93 570.031 578.62 584.871 583.78 599.541C584.53 602.061 586.1 605.161 584.14 607.521H584.15ZM327.33 653.911C327.41 659.551 327.34 665.191 327.32 670.831C339.41 670.971 351.51 670.821 363.6 670.921C363.67 669.801 363.8 667.601 363.87 666.481H332.04C332.06 663.741 332.06 661.001 332.04 658.261C345.38 658.261 358.7 658.251 372.04 658.271C371.83 663.251 372.19 668.241 371.81 673.201C371.33 677.321 367.02 679.561 363.2 679.341C351.82 679.451 340.43 679.341 329.05 679.391C326.22 679.411 322.98 679.141 321 676.871C318.93 675.111 319.17 672.211 319.1 669.771C319.25 663.921 319.04 658.081 319.19 652.241C319.2 648.311 323.11 645.341 326.89 645.651C339.71 645.671 352.54 645.511 365.37 645.731C369.53 645.791 371.79 649.771 372.34 653.441C357.36 654.301 342.34 653.641 327.34 653.901L327.33 653.911ZM447.6 645.701C435.48 645.521 423.36 645.711 411.24 645.611C408.49 645.471 405.63 646.031 403.49 647.881C401.18 650.671 401.62 654.551 401.59 657.941C401.77 663.871 401.16 669.871 402.26 675.751C404.36 677.701 406.86 679.231 409.8 679.371C409.82 677.141 409.85 674.901 409.88 672.681C422.06 672.631 434.23 672.741 446.39 672.621C446.48 674.911 446.55 677.211 446.67 679.511C450.15 679.051 454.21 677.021 454.55 673.121C454.98 666.461 454.68 659.771 454.71 653.101C454.84 649.191 451.47 645.761 447.59 645.701H447.6ZM446.2 664.191C434.08 664.031 421.97 664.141 409.86 664.121C409.84 660.701 409.84 657.291 409.86 653.881C421.98 653.861 434.08 653.881 446.2 653.871C446.2 657.311 446.21 660.751 446.2 664.191ZM552.1 651.891C552.35 658.681 552.18 665.471 552.15 672.261C552.38 676.561 547.82 679.491 543.88 679.151C544 671.711 544.02 664.271 543.86 656.831C535.49 664.331 526.79 671.451 518.37 678.891C509.8 671.501 501.16 664.181 492.59 656.791C492.6 664.291 492.55 671.791 492.65 679.301C490.15 679.051 487.35 678.481 485.82 676.281C483.88 673.761 484.47 670.361 484.35 667.421C484.54 662.071 484.06 656.691 484.6 651.361C485.18 647.241 490.31 644.171 493.93 646.801C502.16 653.491 509.71 661.051 518.16 667.461C526.99 661.111 534.7 653.231 543.19 646.421C546.97 644.101 551.77 647.881 552.1 651.881V651.891ZM590.33 653.571C590.32 655.121 590.32 656.681 590.32 658.241C600.91 658.311 611.5 658.191 622.08 658.311C622.06 661.021 622.06 663.731 622.07 666.461C611.47 666.541 600.88 666.411 590.29 666.531L590.37 671.241C605.35 671.081 620.32 671.151 635.3 671.261C635.08 675.561 631.78 679.141 627.42 679.281C615.27 679.531 603.09 679.351 590.93 679.371C586.89 679.731 582.34 677.191 582 672.841C581.69 666.291 581.77 659.711 581.88 653.161C581.89 649.411 584.83 645.811 588.69 645.691C600.38 645.511 612.1 645.701 623.8 645.611C626.63 645.731 629.86 645.211 632.21 647.181C634.31 648.571 634.48 651.321 635.32 653.481C620.33 653.661 605.33 653.521 590.34 653.551L590.33 653.571ZM717.6 658.371C717.69 663.381 718.15 668.471 717.31 673.451C716.89 677.171 712.95 679.461 709.44 679.301C697.31 679.521 685.16 679.381 673.03 679.361C668.42 679.541 664.33 676.031 664.22 671.311C679.18 671.051 694.15 671.171 709.11 671.231C709.16 669.671 709.22 668.101 709.29 666.531C694.39 666.441 679.49 666.521 664.6 666.491C664.68 661.641 664.42 656.791 664.71 651.941C664.98 648.181 668.49 645.531 672.14 645.671C684.95 645.631 697.78 645.581 710.59 645.711C714.38 645.691 718.49 649.731 717.15 653.531C702.37 653.661 687.57 653.531 672.78 653.591C672.8 655.151 672.85 656.711 672.89 658.291C687.79 658.341 702.7 658.161 717.6 658.381V658.371Z" fill="white"/>
</g>
<defs>
<clipPath id="clip0_2_1572">
<rect width="1024" height="1024" fill="white"/>
</clipPath>
</defs>
</svg>

<svg xmlns="http://www.w3.org/2000/svg" viewBox="0 0 1024 1024">
   <circle cx="512" cy="512" r="512" style="fill:#454545"/>
   <path d="M832 495.04c-11.59.11-23.18-.04-34.75.07.12-24.37.01-48.74.05-73.11h34.32c-.23-25.72.47-51.47-.38-77.17-37.23-.09-74.46-.02-111.69-.04-6.63 14.93-13.06 29.96-19.75 44.86-1.39 3.21-3.38 6.39-3.21 10.02-.01 19.08.07 38.16-.04 57.24-4.68.02-9.36.01-14.03.02-.02-30.03-.01-60.08-.01-90.11-118.85.02-237.72-.05-356.57.04-1.8 4.58-3.89 9.03-5.86 13.54-4.97-11.94-10.65-23.56-15.4-35.58-2.81-.28-5.61-.38-8.43-.33-34.64.2-69.27-.33-103.9.36.05 3.8-.26 7.6-.32 11.39-.04 53.23.02 106.47-.04 159.7.66 18.77.15 37.57.34 56.36 49.5-.04 99.01 0 148.51-.01 0 4.03.02 8.05-.06 12.08-19.03-.08-38.06-.08-57.08 0 4.43 11.31 8.54 22.73 13.01 34.03 26.64-.02 53.29-.07 79.94.02.52-4.81.26-9.65.31-14.48-.05-21.62.21-43.23-.33-64.83-18.87.01-37.74.01-56.61 0-.01-4.02-.05-8.02.04-12.02 26.22.07 52.45-.11 78.68.08-.12 26.01-.11 52.01-.01 78.03 12.06-.06 24.1 0 36.16-.05-.22-26.03-.07-52.06-.07-78.09 12.28.07 24.55.01 36.82 0 7.01-21.09 14.34-42.07 21.35-63.15 16.9.13 33.8.07 50.7.04 7.26 20.96 14.24 42.01 21.52 62.96 12.28.4 24.57.13 36.85.15.02 26.01.09 52.01-.04 78.03 11.95.2 23.9.06 35.85.05.05-25.99.07-52-.01-78.01 7.34-.05 14.68-.01 22-.05.14 30.47-.04 60.92.09 91.39 26.72-.2 53.46-.09 80.19-.05 4.29-11.35 8.57-22.71 12.86-34.05-19.04-.11-38.1-.04-57.14-.04-.18-3.99-.13-7.98-.05-11.96 45.37-.2 90.75-.01 136.12-.09.04-25.75-.09-51.5.07-77.23Zm-514.07-2.21c-7.01.27-14.03.22-21.04.18-3.06 8.23-6.25 16.41-9.35 24.63-1.56 4.4-3.92 8.77-3.65 13.58.04 6.6-.04 13.2.07 19.8-23.53.31-47.06.01-70.6.16.25-61.76-.05-123.53.15-185.28 25.7-.06 51.44-.77 77.11.12 4.86 11.02 9.74 22.04 14.59 33.07 1.71 3.89 1.23 8.21 1.28 12.33-.12 9.02.25 18.03-.29 27.04-.16 2.84.48 5.67 1.78 8.21 2.83 5.87 5.42 11.85 8.1 17.79.92 2.17 1.91 4.41 1.87 6.83.01 7.19 0 14.36-.04 21.54Zm60.57-.11c-.09-3.91-.06-7.82-.15-11.72-5.06 0-10.13-.02-15.19-.02 0 3.92 0 7.84-.01 11.75-12.89.04-25.77-.07-38.65.06-.11-12.62-.68-25.25-.22-37.88.49-10.59-.33-21.23.4-31.79 4.26-10.7 9.32-21.06 13.71-31.71.8-1.43 1.49-3.86 3.56-3.65 19.83-.31 39.66.08 59.48-.19 5.04 10.93 9.8 22 14.68 33.02 1.9 4.1 1.26 8.74 1.36 13.11.02 19.67-.09 39.34.06 59.01-13.01.05-26.01.02-39.02.01Zm138.19-69.92c-9.03.15-18.05.06-27.06.05.04 9.53.07 19.07.04 28.59.01 2.61-.88 5.1-1.69 7.54-4.05 11.2-7.58 22.58-11.61 33.79-8.5-.04-17-.09-25.5.02.15-23.33.12-46.66.01-69.99-8.97.11-17.95.14-26.92-.01-.35-11.56-.55-23.15-.12-34.73 30.91-.62 61.86-.54 92.79-.2.28 11.64.65 23.29.07 34.94Zm72.41.13c.12 23.27.08 46.55.01 69.82-9.59-.15-19.18.73-28.78-.12-3.26-10.38-7.47-20.5-10.07-31.07-.27-12.9-.09-25.82-.07-38.72-9.04.05-18.07.01-27.1 0 .06-11.64.11-23.27-.02-34.91 28.5-.42 57-.28 85.51-.28 2.55.01 5.1.18 7.66.36-.11 11.59.04 23.18.05 34.76-9.06.2-18.13-.05-27.18.14Zm33.63 69.79c-.25-34.88.07-69.76-.16-104.65 12.92-.66 25.85-.45 38.78-.32.43 4.74.31 9.52.32 14.29 0 25.43.01 50.86 0 76.3 16.53.01 33.07-.01 49.61.01 0 4.8.38 9.62-.09 14.41-29.48-.08-58.97.66-88.44-.05Zm188.1 58.02c-18.88.89-37.82.16-56.72.4-14.18-.05-28.38.09-42.56-.07.07-4 .06-8.02-.06-12.02-5.25.08-10.51.07-15.76.04-.02-4-.06-8.02.04-12.02 19.06 0 38.12.07 57.18-.04-4.05-11.4-8.65-22.59-12.74-33.98-7.46-.04-14.91-.07-22.37.02-.26-29.18 0-58.36-.12-87.54-.39-4.57 2.07-8.58 3.78-12.62 3.97-8.96 8-17.88 11.75-26.92 25.72-.15 51.44-.01 77.16-.06.21 11.62-.07 23.25.15 34.87-16.06.12-32.14.06-48.2.04-1.81.23-3.96-.52-5.49.6-.21 13.71-.34 27.42-.11 41.13 6.34-.04 12.69-.02 19.04 0 .34 10.64.58 21.29.09 31.92-6.34.04-12.67.12-19-.01-.21 14.95-.7 29.89-.19 44.84 18.03.33 36.08.01 54.13.15-.19 10.41-.12 20.85-.02 31.28ZM267.49 442.57c-5.11-.02-10.2-.02-15.31 0 .07-13.94 0-27.88.04-41.82 5.06.15 10.12-.05 15.17.32.19 13.84-.01 27.67.11 41.5Zm111.03-19.68c-.14 8.71-.16 17.42-.02 26.14-5.04-.02-10.07-.04-15.11-.01.09-8.71.06-17.42.01-26.12 5.04-.07 10.07-.04 15.12 0Zm91.69 125.8c9.01-26.37 17.87-52.8 26.84-79.18 14.18-.01 28.35.11 42.54-.04 9.16 26.24 17.8 52.67 26.86 78.95-11.49.16-22.99.01-34.48.07-4.57-13.84-9.1-27.7-13.57-41.57-4.58 14-9.16 27.99-13.75 41.97-11.47-.29-22.95.08-34.44-.2Zm-191.34-74.17c.02 13.78.36 27.54.06 41.33-8.9.45-17.82.55-26.71.09-.01-13.81 0-27.61-.02-41.43 8.89.02 17.79.02 26.68.01Zm217.49 100.77c-7.3 21.76-14.29 43.61-21.59 65.36-6.15-9.9-13-19.36-19.47-29.05-1.46-2.38-3.76-4.65-3.69-7.62 1.06-4.44 2.96-8.63 4.26-12.99 4.34-11.8 7.75-23.94 12.36-35.63 9.28 6.79 18.83 13.16 28.12 19.92Zm87.79 32.23c-7.36 10.91-14.72 21.79-22.11 32.68-7.27-21.07-14.38-42.2-21.06-63.46-.86-1.57.77-2.51 1.84-3.28 8.66-5.87 17.08-12.08 25.7-18 5.41 14.57 10.1 29.41 15.26 44.08.75 2.52 2.32 5.62.36 7.98Zm-256.82 46.39c.08 5.64.01 11.28-.01 16.92 12.09.14 24.19-.01 36.28.09.07-1.12.2-3.32.27-4.44h-31.83c.02-2.74.02-5.48 0-8.22 13.34 0 26.66-.01 40 .01-.21 4.98.15 9.97-.23 14.93-.48 4.12-4.79 6.36-8.61 6.14-11.38.11-22.77 0-34.15.05-2.83.02-6.07-.25-8.05-2.52-2.07-1.76-1.83-4.66-1.9-7.1.15-5.85-.06-11.69.09-17.53.01-3.93 3.92-6.9 7.7-6.59 12.82.02 25.65-.14 38.48.08 4.16.06 6.42 4.04 6.97 7.71-14.98.86-30 .2-45 .46Zm120.27-8.21c-12.12-.18-24.24.01-36.36-.09-2.75-.14-5.61.42-7.75 2.27-2.31 2.79-1.87 6.67-1.9 10.06.18 5.93-.43 11.93.67 17.81 2.1 1.95 4.6 3.48 7.54 3.62.02-2.23.05-4.47.08-6.69 12.18-.05 24.35.06 36.51-.06.09 2.29.16 4.59.28 6.89 3.48-.46 7.54-2.49 7.88-6.39.43-6.66.13-13.35.16-20.02.13-3.91-3.24-7.34-7.12-7.4Zm-1.4 18.49c-12.12-.16-24.23-.05-36.34-.07-.02-3.42-.02-6.83 0-10.24 12.12-.02 24.22 0 36.34-.01 0 3.44.01 6.88 0 10.32Zm105.9-12.3c.25 6.79.08 13.58.05 20.37.23 4.3-4.33 7.23-8.27 6.89.12-7.44.14-14.88-.02-22.32-8.37 7.5-17.07 14.62-25.49 22.06-8.57-7.39-17.21-14.71-25.78-22.1.01 7.5-.04 15 .06 22.51-2.5-.25-5.3-.82-6.83-3.02-1.94-2.52-1.35-5.92-1.47-8.86.19-5.35-.29-10.73.25-16.06.58-4.12 5.71-7.19 9.33-4.56 8.23 6.69 15.78 14.25 24.23 20.66 8.83-6.35 16.54-14.23 25.03-21.04 3.78-2.32 8.58 1.46 8.91 5.46Zm38.23 1.68c-.01 1.55-.01 3.11-.01 4.67 10.59.07 21.18-.05 31.76.07-.02 2.71-.02 5.42-.01 8.15-10.6.08-21.19-.05-31.78.07l.08 4.71c14.98-.16 29.95-.09 44.93.02-.22 4.3-3.52 7.88-7.88 8.02-12.15.25-24.33.07-36.49.09-4.04.36-8.59-2.18-8.93-6.53-.31-6.55-.23-13.13-.12-19.68.01-3.75 2.95-7.35 6.81-7.47 11.69-.18 23.41.01 35.11-.08 2.83.12 6.06-.4 8.41 1.57 2.1 1.39 2.27 4.14 3.11 6.3-14.99.18-29.99.04-44.98.07Zm127.27 4.8c.09 5.01.55 10.1-.29 15.08-.42 3.72-4.36 6.01-7.87 5.85-12.13.22-24.28.08-36.41.06-4.61.18-8.7-3.33-8.81-8.05 14.96-.26 29.93-.14 44.89-.08.05-1.56.11-3.13.18-4.7-14.9-.09-29.8-.01-44.69-.04.08-4.85-.18-9.7.11-14.55.27-3.76 3.78-6.41 7.43-6.27 12.81-.04 25.64-.09 38.45.04 3.79-.02 7.9 4.02 6.56 7.82-14.78.13-29.58 0-44.37.06.02 1.56.07 3.12.11 4.7 14.9.05 29.81-.13 44.71.09Z" style="fill:#fff"/>
</svg>
